X:101
T:The Twin Towers
R:reel
C: 2001, 2010 L.E. McCullough 
M:4/4
L:1/8
K:Aminor
AB|:~c3A B2AG|DEGA B~A3|F~G3 AGEG|f~g3 edBA|
~c3A B2AG|DEGA B~A3|F~G3 AGge |dBDG ~A3B:| 
|:~c3d e~g3|a~e3 gedB|~A2Bd edBA|GEDE ~G3A|
B~A3 e~g3|~a2bg aged|f~g3 edge|dBDG ~A3B:| 
<end>
<start>
